source/images/logo.svg

<?xml version="1.0" encoding="UTF-8" standalone="no"?>
<svg width="599px" height="64px" viewBox="0 0 599 64" version="1.1" xmlns="http://www.w3.org/2000/svg" xmlns:xlink="http://www.w3.org/1999/xlink">
    <!-- Generator: Sketch 41.2 (35397) - http://www.bohemiancoding.com/sketch -->
    <title>Group</title>
    <desc>Created with Sketch.</desc>
    <defs></defs>
    <g id="Page-1" stroke="none" stroke-width="1" fill="none" fill-rule="evenodd">
        <g id="Desktop-Landscape" transform="translate(-312.000000, -16.000000)">
            <g id="Group" transform="translate(312.000000, 16.000000)">
                <g id="Turnstyle-Colour_OnDark">
                    <path d="M22.1366094,21.828563 L13.65629,21.828563 L13.65629,35.8971554 C13.65629,37.2684457 13.6919071,38.2417302 13.7596945,38.8147214 C13.8286309,39.3865689 14.0802485,39.8772141 14.5179943,40.2889443 C14.9557401,40.6995308 15.6324652,40.9053959 16.5527655,40.9053959 L21.7907788,40.7681525 L22.2055458,48.1106745 C19.1252401,48.7968915 16.7814043,49.1411437 15.1728896,49.1411437 C11.0367089,49.1411437 8.21031873,48.213607 6.69486807,46.3619648 C5.17826847,44.5080352 4.41996868,41.0906745 4.41996868,36.1018768 L4.41996868,21.828563 L0.351575361,21.828563 L0.351575361,14.0056891 L4.41996868,14.0056891 L4.41996868,4.46727273 L13.65629,2.1798827 L13.65629,14.0056891 L22.1366094,14.0056891 L22.1366094,21.828563" id="Fill-1" fill="#FFFFFF"></path>
                    <path d="M48.4702934,14.0056891 L57.7066147,14.0056891 L57.7066147,48.3165396 L48.5392297,48.3165396 L48.5392297,46.395132 C45.2291362,48.225044 42.3567885,49.1411437 39.9221865,49.1411437 C35.140302,49.1411437 31.9244215,47.8247507 30.2710982,45.1942522 C28.614328,42.5648974 27.7893897,38.1616716 27.7893897,31.9857185 L27.7893897,14.0056891 L37.0257111,14.0056891 L37.0257111,32.1218182 C37.0257111,35.5082991 37.3014565,37.8174194 37.8529472,39.05261 C38.4055869,40.2889443 39.7360584,40.9053959 41.8524042,40.9053959 C43.874537,40.9053959 45.7817759,40.5851613 47.571823,39.9446921 L48.4702934,39.671349 L48.4702934,14.0056891" id="Fill-2" fill="#FFFFFF"></path>
                    <path d="M63.9556944,48.3165396 L63.9556944,14.0056891 L73.1253773,14.0056891 L73.1253773,17.6426393 C76.9846637,15.3575367 80.6624177,13.8695894 84.1540436,13.1833724 L84.1540436,22.4473021 C80.4314809,23.2250147 77.2385792,24.0244575 74.5718916,24.8490616 L73.1943136,25.3282698 L73.1943136,48.3165396 L63.9556944,48.3165396" id="Fill-3" fill="#FFFFFF"></path>
                    <path d="M98.8363362,48.3165396 L89.6000149,48.3165396 L89.6000149,14.0056891 L98.7696977,14.0056891 L98.7696977,15.9270968 C101.893663,14.0994721 104.766011,13.1833724 107.386741,13.1833724 C111.980199,13.1833724 115.151271,14.5329326 116.898808,17.2309091 C118.645195,19.9323167 119.51724,24.0930792 119.51724,29.7200587 L119.51724,48.3165396 L110.280918,48.3165396 L110.280918,29.9956891 C110.280918,27.0689736 109.936237,24.9062463 109.246873,23.5109384 C108.55751,22.1144868 107.177634,21.4179765 105.110693,21.4179765 C103.226432,21.4179765 101.411109,21.7393548 99.6647213,22.3775367 L98.8363362,22.6531672 L98.8363362,48.3165396" id="Fill-4" fill="#FFFFFF"></path>
                    <path d="M151.322172,22.5834018 C145.622285,21.8525806 141.636615,21.4865982 139.361716,21.4865982 C137.085667,21.4865982 135.616174,21.6924633 134.94979,22.1030499 C134.283405,22.5159238 133.949064,23.1666862 133.949064,24.059912 C133.949064,24.9508504 134.398299,25.5695894 135.293322,25.9115543 C136.190644,26.2558065 138.488522,26.7578886 142.186957,27.4223754 C145.88769,28.0857185 148.517611,29.171085 150.081317,30.6807625 C151.642726,32.1904399 152.424004,34.6390909 152.424004,38.0232845 C152.424004,45.4355718 147.806418,49.1411437 138.568948,49.1411437 C135.535749,49.1411437 131.855697,48.7294135 127.537984,47.9059531 L125.332021,47.4942229 L125.607766,39.8085924 C131.305355,40.5405572 135.270344,40.9053959 137.501583,40.9053959 C139.729376,40.9053959 141.244827,40.6903812 142.050233,40.2546334 C142.853342,39.8188856 143.257768,39.1669795 143.257768,38.2977713 C143.257768,37.4297067 142.830363,36.7880938 141.980148,36.3775073 C141.129933,35.9657771 138.92397,35.463695 135.362259,34.8666862 C131.799399,34.2731085 129.146498,33.2655132 127.40126,31.8473314 C125.652575,30.4302933 124.779381,27.9015836 124.779381,24.2657771 C124.779381,20.628827 126.021384,17.8839589 128.503092,16.0300293 C130.984801,14.1772434 134.18,13.2508504 138.087542,13.2508504 C140.79789,13.2508504 144.498622,13.6865982 149.186294,14.5558065 L151.458895,14.966393 L151.322172,22.5834018" id="Fill-5" fill="#FFFFFF"></path>
                    <path d="M178.205048,21.828563 L169.728176,21.828563 L169.728176,35.8971554 C169.728176,37.2684457 169.761495,38.2417302 169.830431,38.8147214 C169.900517,39.3865689 170.152134,39.8772141 170.58988,40.2889443 C171.024179,40.6995308 171.702053,40.9053959 172.622353,40.9053959 L177.862665,40.7681525 L178.275134,48.1106745 C175.195977,48.7968915 172.850992,49.1411437 171.244775,49.1411437 C167.106297,49.1411437 164.281056,48.213607 162.764456,46.3619648 C161.247856,44.5080352 160.489557,41.0906745 160.489557,36.1018768 L160.489557,21.828563 L156.423461,21.828563 L156.423461,14.0056891 L160.489557,14.0056891 L160.489557,4.46727273 L169.728176,2.1798827 L169.728176,14.0056891 L178.205048,14.0056891 L178.205048,21.828563" id="Fill-6" fill="#FFFFFF"></path>
                    <polyline id="Fill-7" fill="#FFFFFF" points="219.08545 48.3165396 219.08545 2.568739 228.324069 0.281348974 228.324069 48.3165396 219.08545 48.3165396"></polyline>
                    <path d="M255.574607,28.0742815 C255.574607,25.3282698 255.136861,23.4194428 254.264816,22.3443695 C253.391622,21.2704399 251.863533,20.7317595 249.6794,20.7317595 C247.496416,20.7317595 245.956838,21.2921701 245.061814,22.4118475 C244.166791,23.534956 243.694577,25.4209091 243.64747,28.0742815 L255.574607,28.0742815 Z M245.407645,39.6358944 C246.486499,40.574868 248.037566,41.043783 250.059699,41.043783 C254.333753,41.043783 258.149379,40.9053959 261.503132,40.6320528 L263.43335,40.425044 L263.570074,47.2197361 C258.286103,48.4995308 253.506516,49.1411437 249.233612,49.1411437 C244.038109,49.1411437 240.270738,47.767566 237.928051,45.0238416 C235.583067,42.2789736 234.411149,37.8174194 234.411149,31.6414663 C234.411149,19.3353079 239.489459,13.1833724 249.646081,13.1833724 C259.663681,13.1833724 264.674204,18.3528739 264.674204,28.6907331 L263.98599,35.0725513 L243.717555,35.0725513 C243.762364,37.1792375 244.325344,38.7003519 245.407645,39.6358944 L245.407645,39.6358944 Z" id="Fill-8" fill="#FFFFFF"></path>
                    <polyline id="Fill-9" fill="#6FC3BD" points="197.456672 48.3165396 192.083084 48.3165396 181.939101 14.0971848 191.030656 14.0971848 198.459696 39.8909384"></polyline>
                    <polyline id="Fill-10" fill="#FFFFFF" points="197.894418 39.8909384 205.324607 14.0971848 214.415013 14.0971848 200.154381 62.2421701 191.130613 62.2421701 195.554029 47.6177419"></polyline>
                </g>
                <path d="M315.177465,44.0658065 L317.138028,43.8645161 L317.273239,47.8232258 C312.135186,48.5389283 307.740863,48.8967742 304.090141,48.8967742 C299.222511,48.8967742 295.774658,47.4989387 293.746479,44.7032258 C291.7183,41.9075129 290.704225,37.5574489 290.704225,31.6529032 C290.704225,19.8885433 295.414037,14.0064516 304.833803,14.0064516 C309.385938,14.0064516 312.788721,15.2700949 315.042254,17.7974194 C317.295786,20.3247438 318.422535,24.2945966 318.422535,29.7070968 L318.152113,33.5316129 L295.842254,33.5316129 C295.842254,37.2443196 296.518303,39.9952599 297.870423,41.7845161 C299.222542,43.5737724 301.577448,44.4683871 304.935211,44.4683871 C308.292975,44.4683871 311.707025,44.3341949 315.177465,44.0658065 Z M313.352113,29.5058065 C313.352113,25.3905171 312.687331,22.4830193 311.357746,20.7832258 C310.028162,19.0834324 307.864804,18.2335484 304.867606,18.2335484 C301.870408,18.2335484 299.616909,19.1281631 298.107042,20.9174194 C296.597176,22.7066756 295.819719,25.5694427 295.774648,29.5058065 L313.352113,29.5058065 Z M329.290141,48.2258065 L324.219718,48.2258065 L324.219718,14.6774194 L329.222535,14.6774194 L329.222535,17.0258065 C332.873258,15.0128932 336.366181,14.0064516 339.701408,14.0064516 C344.208473,14.0064516 347.239429,15.2141815 348.794366,17.6296774 C350.349304,20.0451734 351.126761,24.339324 351.126761,30.5122581 L351.126761,48.2258065 L346.123944,48.2258065 L346.123944,30.6464516 C346.123944,25.9943853 345.661976,22.8073204 344.738028,21.0851613 C343.81408,19.3630021 341.842269,18.5019355 338.822535,18.5019355 C337.380274,18.5019355 335.859163,18.7144065 334.259155,19.1393548 C332.659147,19.5643032 331.43099,19.9780625 330.574648,20.3806452 L329.290141,20.9845161 L329.290141,48.2258065 Z M371.459155,63.9935484 C366.050677,63.9935484 362.276067,63.2666739 360.135211,61.8129032 C357.994355,60.3591325 356.923944,57.7088364 356.923944,53.8619355 C356.923944,52.0279478 357.329573,50.5406509 358.140845,49.4 C358.952117,48.2593491 360.326751,46.9733405 362.264789,45.5419355 C361.002811,44.6920388 360.371831,43.1488284 360.371831,40.9122581 C360.371831,40.1518242 360.935206,38.742806 362.061972,36.6851613 L362.670423,35.6116129 C359.109841,34.0012823 357.329577,30.6241117 357.329577,25.48 C357.329577,17.8309295 361.54362,14.0064516 369.971831,14.0064516 C372.135222,14.0064516 374.140836,14.2301053 375.988732,14.6774194 L377.002817,14.8787097 L387.008451,14.6103226 L387.008451,18.9045161 L380.585915,18.7703226 C382.073247,20.246459 382.816901,22.4829958 382.816901,25.48 C382.816901,29.6847522 381.769025,32.6257981 379.673239,34.3032258 C377.577454,35.9806535 374.276079,36.8193548 369.769014,36.8193548 C368.552107,36.8193548 367.447892,36.7298934 366.456338,36.5509677 C365.645066,38.5191496 365.239437,39.7939756 365.239437,40.3754839 C365.239437,41.7621575 365.667601,42.6232241 366.523944,42.9587097 C367.380286,43.2941952 369.971809,43.4619355 374.298592,43.4619355 C378.625374,43.4619355 381.735202,44.1328965 383.628169,45.4748387 C385.521136,46.8167809 386.467606,49.4335289 386.467606,53.3251613 C386.467606,60.4374549 381.464839,63.9935484 371.459155,63.9935484 Z M361.926761,53.4593548 C361.926761,55.8301194 362.591543,57.4739739 363.921127,58.3909677 C365.250711,59.3079616 367.707024,59.7664516 371.290141,59.7664516 C374.873257,59.7664516 377.442246,59.2744135 378.997183,58.2903226 C380.55212,57.3062316 381.329577,55.6623771 381.329577,53.3587097 C381.329577,51.0550422 380.766203,49.5677453 379.639437,48.8967742 C378.51267,48.2258031 376.304242,47.8903226 373.014085,47.8903226 L365.712676,47.5548387 C364.225345,48.6283925 363.222538,49.5677379 362.704225,50.3729032 C362.185913,51.1780685 361.926761,52.2068755 361.926761,53.4593548 Z M364.191549,31.116129 C365.385921,32.2344142 367.357733,32.7935484 370.107042,32.7935484 C372.856352,32.7935484 374.816896,32.2344142 375.988732,31.116129 C377.160569,29.9978439 377.746479,28.1079703 377.746479,25.4464516 C377.746479,22.7849329 377.160569,20.8950594 375.988732,19.7767742 C374.816896,18.658489 372.856352,18.0993548 370.107042,18.0993548 C367.357733,18.0993548 365.385921,18.6696717 364.191549,19.8103226 C362.997177,20.9509734 362.4,22.840847 362.4,25.48 C362.4,28.119153 362.997177,29.9978439 364.191549,31.116129 Z M391.047887,48.2258065 L391.047887,14.6774194 L396.11831,14.6774194 L396.11831,48.2258065 L391.047887,48.2258065 Z M391.047887,7.09548387 L391.047887,1.25806452 L396.11831,1.25806452 L396.11831,7.09548387 L391.047887,7.09548387 Z M408.811268,48.2258065 L403.740845,48.2258065 L403.740845,14.6774194 L408.743662,14.6774194 L408.743662,17.0258065 C412.394384,15.0128932 415.887307,14.0064516 419.222535,14.0064516 C423.7296,14.0064516 426.760556,15.2141815 428.315493,17.6296774 C429.87043,20.0451734 430.647887,24.339324 430.647887,30.5122581 L430.647887,48.2258065 L425.64507,48.2258065 L425.64507,30.6464516 C425.64507,25.9943853 425.183103,22.8073204 424.259155,21.0851613 C423.335207,19.3630021 421.363395,18.5019355 418.343662,18.5019355 C416.901401,18.5019355 415.38029,18.7144065 413.780282,19.1393548 C412.180274,19.5643032 410.952117,19.9780625 410.095775,20.3806452 L408.811268,20.9845161 L408.811268,48.2258065 Z M460.91831,44.0658065 L462.878873,43.8645161 L463.014085,47.8232258 C457.876031,48.5389283 453.481708,48.8967742 449.830986,48.8967742 C444.963356,48.8967742 441.515503,47.4989387 439.487324,44.7032258 C437.459145,41.9075129 436.44507,37.5574489 436.44507,31.6529032 C436.44507,19.8885433 441.154882,14.0064516 450.574648,14.0064516 C455.126783,14.0064516 458.529566,15.2700949 460.783099,17.7974194 C463.036631,20.3247438 464.16338,24.2945966 464.16338,29.7070968 L463.892958,33.5316129 L441.583099,33.5316129 C441.583099,37.2443196 442.259148,39.9952599 443.611268,41.7845161 C444.963387,43.5737724 447.318293,44.4683871 450.676056,44.4683871 C454.03382,44.4683871 457.44787,44.3341949 460.91831,44.0658065 Z M459.092958,29.5058065 C459.092958,25.3905171 458.428176,22.4830193 457.098592,20.7832258 C455.769007,19.0834324 453.605649,18.2335484 450.608451,18.2335484 C447.611253,18.2335484 445.357754,19.1281631 443.847887,20.9174194 C442.338021,22.7066756 441.560564,25.5694427 441.515493,29.5058065 L459.092958,29.5058065 Z M492.946479,44.0658065 L494.907042,43.8645161 L495.042254,47.8232258 C489.9042,48.5389283 485.509877,48.8967742 481.859155,48.8967742 C476.991525,48.8967742 473.543672,47.4989387 471.515493,44.7032258 C469.487314,41.9075129 468.473239,37.5574489 468.473239,31.6529032 C468.473239,19.8885433 473.183051,14.0064516 482.602817,14.0064516 C487.154952,14.0064516 490.557735,15.2700949 492.811268,17.7974194 C495.0648,20.3247438 496.191549,24.2945966 496.191549,29.7070968 L495.921127,33.5316129 L473.611268,33.5316129 C473.611268,37.2443196 474.287317,39.9952599 475.639437,41.7845161 C476.991556,43.5737724 479.346462,44.4683871 482.704225,44.4683871 C486.061989,44.4683871 489.476039,44.3341949 492.946479,44.0658065 Z M491.121127,29.5058065 C491.121127,25.3905171 490.456345,22.4830193 489.126761,20.7832258 C487.797176,19.0834324 485.633818,18.2335484 482.63662,18.2335484 C479.639422,18.2335484 477.385923,19.1281631 475.876056,20.9174194 C474.36619,22.7066756 473.588733,25.5694427 473.543662,29.5058065 L491.121127,29.5058065 Z M501.988732,48.2258065 L501.988732,14.6774194 L506.991549,14.6774194 L506.991549,19.24 C510.912696,16.5561156 515.036598,14.7892516 519.36338,13.9393548 L519.36338,19.0387097 C517.470413,19.3965609 515.498602,19.9556951 513.447887,20.716129 C511.397173,21.4765629 509.830991,22.147524 508.749296,22.7290323 L507.059155,23.6012903 L507.059155,48.2258065 L501.988732,48.2258065 Z M523.267606,48.2258065 L523.267606,14.6774194 L528.338028,14.6774194 L528.338028,48.2258065 L523.267606,48.2258065 Z M523.267606,7.09548387 L523.267606,1.25806452 L528.338028,1.25806452 L528.338028,7.09548387 L523.267606,7.09548387 Z M541.030986,48.2258065 L535.960563,48.2258065 L535.960563,14.6774194 L540.96338,14.6774194 L540.96338,17.0258065 C544.614103,15.0128932 548.107026,14.0064516 551.442254,14.0064516 C555.949318,14.0064516 558.980274,15.2141815 560.535211,17.6296774 C562.090149,20.0451734 562.867606,24.339324 562.867606,30.5122581 L562.867606,48.2258065 L557.864789,48.2258065 L557.864789,30.6464516 C557.864789,25.9943853 557.402822,22.8073204 556.478873,21.0851613 C555.554925,19.3630021 553.583114,18.5019355 550.56338,18.5019355 C549.12112,18.5019355 547.600008,18.7144065 546,19.1393548 C544.399992,19.5643032 543.171835,19.9780625 542.315493,20.3806452 L541.030986,20.9845161 L541.030986,48.2258065 Z M583.2,63.9935484 C577.791522,63.9935484 574.016912,63.2666739 571.876056,61.8129032 C569.735201,60.3591325 568.664789,57.7088364 568.664789,53.8619355 C568.664789,52.0279478 569.070418,50.5406509 569.88169,49.4 C570.692962,48.2593491 572.067596,46.9733405 574.005634,45.5419355 C572.743656,44.6920388 572.112676,43.1488284 572.112676,40.9122581 C572.112676,40.1518242 572.676051,38.742806 573.802817,36.6851613 L574.411268,35.6116129 C570.850686,34.0012823 569.070423,30.6241117 569.070423,25.48 C569.070423,17.8309295 573.284465,14.0064516 581.712676,14.0064516 C583.876067,14.0064516 585.881681,14.2301053 587.729577,14.6774194 L588.743662,14.8787097 L598.749296,14.6103226 L598.749296,18.9045161 L592.326761,18.7703226 C593.814092,20.246459 594.557746,22.4829958 594.557746,25.48 C594.557746,29.6847522 593.50987,32.6257981 591.414085,34.3032258 C589.318299,35.9806535 586.016924,36.8193548 581.509859,36.8193548 C580.292952,36.8193548 579.188737,36.7298934 578.197183,36.5509677 C577.385911,38.5191496 576.980282,39.7939756 576.980282,40.3754839 C576.980282,41.7621575 577.408446,42.6232241 578.264789,42.9587097 C579.121131,43.2941952 581.712654,43.4619355 586.039437,43.4619355 C590.366219,43.4619355 593.476047,44.1328965 595.369014,45.4748387 C597.261981,46.8167809 598.208451,49.4335289 598.208451,53.3251613 C598.208451,60.4374549 593.205684,63.9935484 583.2,63.9935484 Z M573.667606,53.4593548 C573.667606,55.8301194 574.332388,57.4739739 575.661972,58.3909677 C576.991556,59.3079616 579.447869,59.7664516 583.030986,59.7664516 C586.614102,59.7664516 589.183091,59.2744135 590.738028,58.2903226 C592.292966,57.3062316 593.070423,55.6623771 593.070423,53.3587097 C593.070423,51.0550422 592.507048,49.5677453 591.380282,48.8967742 C590.253515,48.2258031 588.045087,47.8903226 584.75493,47.8903226 L577.453521,47.5548387 C575.96619,48.6283925 574.963383,49.5677379 574.44507,50.3729032 C573.926758,51.1780685 573.667606,52.2068755 573.667606,53.4593548 Z M575.932394,31.116129 C577.126767,32.2344142 579.098578,32.7935484 581.847887,32.7935484 C584.597197,32.7935484 586.557741,32.2344142 587.729577,31.116129 C588.901414,29.9978439 589.487324,28.1079703 589.487324,25.4464516 C589.487324,22.7849329 588.901414,20.8950594 587.729577,19.7767742 C586.557741,18.658489 584.597197,18.0993548 581.847887,18.0993548 C579.098578,18.0993548 577.126767,18.6696717 575.932394,19.8103226 C574.738022,20.9509734 574.140845,22.840847 574.140845,25.48 C574.140845,28.119153 574.738022,29.9978439 575.932394,31.116129 Z" id="engineering" fill="#FFFFFF" opacity="0.66301306"></path>
            </g>
        </g>
    </g>
</svg>

<svg width="265" height="63" viewBox="0 0 265 63" xmlns="http://www.w3.org/2000/svg"><title>logo</title><g fill-rule="nonzero" fill="none"><path d="M22.137 21.83h-8.48v14.067c0 1.37.035 2.345.103 2.918.07.572.32 1.062.758 1.474.438.41 1.114.615 2.035.615l5.238-.137.416 7.343c-3.08.687-5.425 1.03-7.033 1.03-4.136 0-6.963-.926-8.478-2.778-1.517-1.854-2.275-5.27-2.275-10.26V21.83H.352v-7.824H4.42v-9.54l9.236-2.286v11.826h8.48v7.823M48.47 14.006h9.237v34.31H48.54v-1.92c-3.31 1.83-6.183 2.745-8.618 2.745-4.782 0-7.998-1.315-9.65-3.946-1.658-2.63-2.483-7.032-2.483-13.208v-17.98h9.236v18.116c0 3.386.275 5.695.827 6.93.553 1.237 1.883 1.853 4 1.853 2.022 0 3.93-.32 5.72-.96l.897-.274V14.007M63.956 48.317v-34.31h9.17v3.636c3.86-2.285 7.536-3.773 11.028-4.46v9.264c-3.723.778-6.915 1.577-9.582 2.402l-1.378.478v22.99h-9.238M98.836 48.317H89.6v-34.31h9.17v1.92c3.124-1.828 5.996-2.744 8.617-2.744 4.593 0 7.764 1.35 9.512 4.048 1.745 2.702 2.617 6.863 2.617 12.49v18.597h-9.236v-18.32c0-2.928-.344-5.09-1.033-6.486-.69-1.396-2.07-2.092-4.136-2.092-1.884 0-3.7.32-5.445.96l-.83.275v25.664M151.322 22.583c-5.7-.73-9.685-1.096-11.96-1.096-2.276 0-3.746.205-4.412.616-.667.413-1 1.064-1 1.957 0 .89.448 1.51 1.343 1.852.898.344 3.196.846 6.894 1.51 3.7.664 6.33 1.75 7.894 3.26 1.563 1.508 2.344 3.957 2.344 7.34 0 7.414-4.618 11.12-13.855 11.12-3.034 0-6.714-.413-11.032-1.236l-2.206-.412.276-7.685c5.697.73 9.662 1.095 11.894 1.095 2.227 0 3.743-.215 4.548-.65.803-.436 1.208-1.088 1.208-1.957 0-.868-.428-1.51-1.278-1.92-.85-.412-3.056-.914-6.618-1.51-3.563-.595-6.216-1.602-7.96-3.02-1.75-1.418-2.623-3.946-2.623-7.582 0-3.637 1.24-6.382 3.723-8.236 2.482-1.853 5.677-2.78 9.585-2.78 2.71 0 6.41.437 11.098 1.306l2.273.41-.138 7.617M178.205 21.83h-8.477v14.067c0 1.37.033 2.345.102 2.918.07.572.322 1.062.76 1.474.434.41 1.112.615 2.032.615l5.24-.137.413 7.343c-3.08.687-5.424 1.03-7.03 1.03-4.14 0-6.964-.926-8.48-2.778-1.517-1.854-2.275-5.27-2.275-10.26V21.83h-4.067v-7.824h4.067v-9.54l9.238-2.286v11.826h8.477v7.823M219.085 48.317V2.57l9.24-2.29v48.037h-9.24M255.575 28.074c0-2.746-.438-4.655-1.31-5.73-.873-1.074-2.4-1.612-4.586-1.612-2.184 0-3.723.56-4.618 1.68-.895 1.123-1.367 3.01-1.415 5.662h11.928zm-10.167 11.562c1.078.94 2.63 1.408 4.652 1.408 4.274 0 8.09-.14 11.443-.412l1.93-.207.137 6.795c-5.284 1.28-10.063 1.92-14.336 1.92-5.196 0-8.963-1.372-11.306-4.116-2.345-2.745-3.517-7.207-3.517-13.383 0-12.305 5.08-18.457 15.236-18.457 10.018 0 15.028 5.17 15.028 15.508l-.688 6.383h-20.268c.044 2.106.607 3.627 1.69 4.563z" fill="#FFF"/><path fill="#6FC3BD" d="M197.457 48.317h-5.374l-10.144-34.22h9.09l7.43 25.794"/><path fill="#FFF" d="M197.894 39.89l7.43-25.793h9.09l-14.26 48.145h-9.023l4.424-14.624"/></g></svg>
